!!!OTL-incipit: O STRASBURG O STRASBURG DU WUNDERSCHOENE STADT
!!!ARE: Europa, Mitteleuropa, Deutschland, Norddeutschland
!!!SCT: Z0003
!!!TXL: @@DE
!!!YEM: Copyright 1995, estate of Helmut Schaffrath.
**kern	**text
*ICvox	*
*M2/4	*
*k[f#]	*
*G:	*
!LO:TX:a:t=Norddeutſch.	!
{8d	O
=1	=1
4g	Strasburg,
8d	.
8g	o
=2	=2
4a	Strasburg,
8d}	.
{8a	du
=3	=3
8b/	wun-
8a	-der
8g	ſchö-
8b/	-ne
=4	=4
4.a}	Stadt,
{8d	O
=5	=5
4g	Strasburg,
8d	.
8g	o
=6	=6
4a	Strasburg,
8d}	.
{8a	du
=7	=7
8b/	wun-
8a	-der
8g	ſchö-
8b/	-ne
=8	=8
4.a}	Stadt!
{8g	dar-
=9	=9
8dd/	-in-
8ee/	-nen
8dd/	liegt
8cc/	be-
=10	=10
4b/	-gra-
8b/}	-ben
{16a/L	ſo
16bJ	.
=11	=11
8cc/	mannicher
8cc/	.
8b/	.
8b/	Sol-
=12	=12
4.a}	-dat,
{16dL	dar-
16bJ	.
=13	=13
8.dd/	-in-
16ee/	-nen
8dd/	liegt
8cc/	be-
=14	=14
4b/	-gra-
8b/}	-ben
{16aL	ſo
16bJ	.
=15	=15
8cc/	man-
8ee/	-ni-
8dd/	-cher
8cc/	Sol-
=16	=16
4.b/}	-dat.
==	==
!!!AGN: Sagen - Lied, Romanze
!!!ONB: ESAC (Essen Associative Code) Database: ZUCCAL
!!!AMT: simple duple
!!!AIN: vox
!!!EED: Helmut Schaffrath
!!!EEV: 1.0
!!!GTL: I. Ernste Romanzen und Sagen.
!!!URL-scan: https://www.digitale-sammlungen.de/de/view/bsb11160571?page=20
!!!ENC: Anna Maria Matuszewska
!!!EEV: 2025/01/22
*-	*-
